ivy-dev/22/pool/mime-gamerom.svg

<?xml version="1.0" encoding="UTF-8" standalone="no"?>
<!-- Created with Inkscape (http://www.inkscape.org/) -->

<svg
   xmlns:dc="http://purl.org/dc/elements/1.1/"
   xmlns:cc="http://creativecommons.org/ns#"
   xmlns:rdf="http://www.w3.org/1999/02/22-rdf-syntax-ns#"
   xmlns:svg="http://www.w3.org/2000/svg"
   xmlns="http://www.w3.org/2000/svg"
   xmlns:xlink="http://www.w3.org/1999/xlink"
   xmlns:inkscape="http://www.inkscape.org/namespaces/inkscape"
   version="1.0"
   width="22"
   height="22"
   id="svg2">
  <metadata
     id="metadata26">
    <rdf:RDF>
      <cc:Work
         rdf:about="">
        <dc:format>image/svg+xml</dc:format>
        <dc:type
           rdf:resource="http://purl.org/dc/dcmitype/StillImage" />
        <dc:title />
      </cc:Work>
    </rdf:RDF>
  </metadata>
  <defs
     id="defs4">
    <linearGradient
       id="linearGradient3773">
      <stop
         id="stop3775"
         style="stop-color:#ffffff;stop-opacity:1"
         offset="0" />
      <stop
         id="stop3777"
         style="stop-color:#ffffff;stop-opacity:0"
         offset="1" />
    </linearGradient>
    <linearGradient
       id="linearGradient919">
      <stop
         id="stop921"
         style="stop-color:#dedede;stop-opacity:1"
         offset="0" />
      <stop
         id="stop923"
         style="stop-color:#f4f4f4;stop-opacity:1"
         offset="1" />
    </linearGradient>
    <linearGradient
       x1="40.937481"
       y1="2.0000007"
       x2="40.937481"
       y2="44"
       id="linearGradient4015"
       xlink:href="#linearGradient919"
       gradientUnits="userSpaceOnUse"
       gradientTransform="matrix(0.51500304,0,0,0.5,-1.0829268,-1.0000003)" />
    <linearGradient
       x1="20"
       y1="2"
       x2="20"
       y2="21"
       id="linearGradient3779"
       xlink:href="#linearGradient3773"
       gradientUnits="userSpaceOnUse"
       gradientTransform="translate(-1,-1)" />
  </defs>
  <rect
     width="18"
     height="21"
     rx="0.60438073"
     ry="0.60438073"
     x="2"
     y="1"
     id="rect3781"
     style="opacity:0.1;stroke:none" />
  <g
     transform="translate(-56.173557,-9.731802)"
     id="g2808" />
  <g
     transform="matrix(0.021951,0,0,0.03169375,88.062113,17.454014)"
     id="g6865" />
  <g
     transform="matrix(0.021951,0,0,0.03169375,109.17654,8.72408)"
     id="g3218" />
  <rect
     width="18"
     height="21"
     rx="0.60438073"
     ry="0.60438073"
     x="2"
     y="0"
     id="rect4007"
     style="fill:url(#linearGradient4015);stroke:none" />
  <path
     d="M 6,4 6,6 8,6 8,4 6,4 z m 2,2 0,2 -2,0 0,6 10,0 0,-6 -2,0 0,-2 -2,0 0,2 -2,0 0,-2 -2,0 z m 6,0 2,0 0,-2 -2,0 0,2 z m 2,8 0,2 2,0 0,-2 -2,0 z m 0,2 -4,0 0,2 4,0 0,-2 z m -10,-2 -2,0 0,2 2,0 0,-2 z m 0,2 0,2 4,0 0,-2 -4,0 z"
     inkscape:connector-curvature="0"
     id="rect1097"
     style="opacity:0.6;fill:#ffffff;fill-opacity:1;stroke:none" />
  <path
     d="m 2.5938,0.5312 c -0.058216,0 -0.0625,0.00428 -0.0625,0.0625 l 0,19.8125 c 0,0.05822 0.00428,0.0625 0.0625,0.0625 l 16.8125,0 c 0.05822,0 0.0625,-0.0043 0.0625,-0.0625 l 0,-19.8125 c 0,-0.058217 -0.0043,-0.0625 -0.0625,-0.0625 l -16.8125,0 z"
     inkscape:connector-curvature="0"
     id="path3001"
     style="opacity:0.4;fill:none;stroke:#000000" />
  <path
     d="m 3.5312,1.5312 0,17.9375 14.9375,0 0,-17.9375 -14.9375,0 z"
     inkscape:connector-curvature="0"
     id="path3003"
     style="opacity:0.8;fill:none;stroke:url(#linearGradient3779)" />
  <g
     transform="matrix(0.45833333,0,0,0.45833333,-76.739902,17.91459)"
     id="g2808-3" />
  <g
     transform="matrix(0.01006087,0,0,0.0145263,-10.631888,30.374756)"
     id="g6865-0" />
  <g
     transform="matrix(0.01006087,0,0,0.0145263,-0.95444186,26.373536)"
     id="g3218-0" />
  <rect
     width="10"
     height="6"
     x="-16"
     y="7"
     transform="scale(-1,1)"
     id="rect1073"
     style="opacity:0.6;fill:#000000;fill-opacity:1;stroke:none" />
  <rect
     width="2"
     height="2"
     x="-14"
     y="9"
     transform="scale(-1,1)"
     id="rect1077"
     style="fill:#ebebeb;fill-opacity:1;stroke:none" />
  <rect
     width="2"
     height="2"
     x="-10"
     y="9"
     transform="scale(-1,1)"
     id="rect1079"
     style="fill:#ebebeb;fill-opacity:1;stroke:none" />
  <rect
     width="2"
     height="2"
     x="-6"
     y="13"
     transform="scale(-1,1)"
     id="rect1081"
     style="opacity:0.6;fill:#000000;fill-opacity:1;stroke:none" />
  <rect
     width="4"
     height="2"
     x="-10"
     y="15"
     transform="scale(-1,1)"
     id="rect1083"
     style="opacity:0.6;fill:#000000;fill-opacity:1;stroke:none" />
  <rect
     width="2"
     height="2"
     x="16"
     y="13"
     id="rect1085"
     style="opacity:0.6;fill:#000000;fill-opacity:1;stroke:none" />
  <rect
     width="4"
     height="2"
     x="12"
     y="15"
     id="rect1087"
     style="opacity:0.6;fill:#000000;fill-opacity:1;stroke:none" />
  <rect
     width="2"
     height="2"
     x="-10"
     y="5"
     transform="scale(-1,1)"
     id="rect1089"
     style="opacity:0.6;fill:#000000;fill-opacity:1;stroke:none" />
  <rect
     width="2"
     height="2"
     x="-14"
     y="5"
     transform="scale(-1,1)"
     id="rect1091"
     style="opacity:0.6;fill:#000000;fill-opacity:1;stroke:none" />
  <rect
     width="2"
     height="2"
     x="-16"
     y="3"
     transform="scale(-1,1)"
     id="rect1093"
     style="opacity:0.6;fill:#000000;fill-opacity:1;stroke:none" />
  <rect
     width="2"
     height="2"
     x="-8"
     y="3"
     transform="scale(-1,1)"
     id="rect1095"
     style="opacity:0.6;fill:#000000;fill-opacity:1;stroke:none" />
</svg>

<?xml version="1.0" encoding="UTF-8" standalone="no"?>
<!-- Created with Inkscape (http://www.inkscape.org/) -->

<svg
   xmlns:dc="http://purl.org/dc/elements/1.1/"
   xmlns:cc="http://creativecommons.org/ns#"
   xmlns:rdf="http://www.w3.org/1999/02/22-rdf-syntax-ns#"
   xmlns:svg="http://www.w3.org/2000/svg"
   xmlns="http://www.w3.org/2000/svg"
   xmlns:xlink="http://www.w3.org/1999/xlink"
   xmlns:sodipodi="http://sodipodi.sourceforge.net/DTD/sodipodi-0.dtd"
   xmlns:inkscape="http://www.inkscape.org/namespaces/inkscape"
   version="1.0"
   width="22"
   height="22"
   id="svg2"
   inkscape:version="0.49+devel r"
   sodipodi:docname="mime-gamerom.svg">
  <sodipodi:namedview
     pagecolor="#ffffff"
     bordercolor="#666666"
     borderopacity="1"
     objecttolerance="10"
     gridtolerance="10"
     guidetolerance="10"
     inkscape:pageopacity="0"
     inkscape:pageshadow="2"
     inkscape:window-width="1334"
     inkscape:window-height="747"
     id="namedview20"
     showgrid="true"
     inkscape:zoom="22.589975"
     inkscape:cx="11.206735"
     inkscape:cy="10.458071"
     inkscape:window-x="32"
     inkscape:window-y="0"
     inkscape:window-maximized="1"
     inkscape:current-layer="svg2"
     inkscape:snap-bbox="true"
     inkscape:bbox-nodes="true"
     inkscape:bbox-paths="true">
    <inkscape:grid
       type="xygrid"
       id="grid1033" />
  </sodipodi:namedview>
  <metadata
     id="metadata26">
    <rdf:RDF>
      <cc:Work
         rdf:about="">
        <dc:format>image/svg+xml</dc:format>
        <dc:type
           rdf:resource="http://purl.org/dc/dcmitype/StillImage" />
        <dc:title></dc:title>
      </cc:Work>
    </rdf:RDF>
  </metadata>
  <defs
     id="defs4">
    <linearGradient
       id="linearGradient3773">
      <stop
         id="stop3775"
         style="stop-color:#ffffff;stop-opacity:1"
         offset="0" />
      <stop
         id="stop3777"
         style="stop-color:#ffffff;stop-opacity:0"
         offset="1" />
    </linearGradient>
    <linearGradient
       id="linearGradient919">
      <stop
         id="stop921"
         style="stop-color:#dedede;stop-opacity:1"
         offset="0" />
      <stop
         id="stop923"
         style="stop-color:#f4f4f4;stop-opacity:1"
         offset="1" />
    </linearGradient>
    <linearGradient
       x1="40.937481"
       y1="2.0000007"
       x2="40.937481"
       y2="44"
       id="linearGradient4015"
       xlink:href="#linearGradient919"
       gradientUnits="userSpaceOnUse"
       gradientTransform="matrix(0.51500304,0,0,0.5,-1.0829268,-1.0000003)" />
    <linearGradient
       x1="20"
       y1="2"
       x2="20"
       y2="21"
       id="linearGradient3779"
       xlink:href="#linearGradient3773"
       gradientUnits="userSpaceOnUse"
       gradientTransform="translate(-1,-1)" />
  </defs>
  <rect
     width="18"
     height="21"
     rx="0.60438073"
     ry="0.60438073"
     x="2"
     y="1"
     id="rect3781"
     style="opacity:0.1;stroke:none" />
  <g
     transform="translate(-56.173557,-9.731802)"
     id="g2808" />
  <g
     transform="matrix(0.021951,0,0,0.03169375,88.062113,17.454014)"
     id="g6865" />
  <g
     transform="matrix(0.021951,0,0,0.03169375,109.17654,8.72408)"
     id="g3218" />
  <rect
     width="18"
     height="21"
     rx="0.60438073"
     ry="0.60438073"
     x="2"
     y="0"
     id="rect4007"
     style="fill:url(#linearGradient4015);stroke:none" />
  <path
     style="opacity:0.6;fill:#ffffff;fill-opacity:1;stroke:none"
     d="M 6 4 L 6 6 L 8 6 L 8 4 L 6 4 z M 8 6 L 8 8 L 6 8 L 6 14 L 16 14 L 16 8 L 14 8 L 14 6 L 12 6 L 12 8 L 10 8 L 10 6 L 8 6 z M 14 6 L 16 6 L 16 4 L 14 4 L 14 6 z M 16 14 L 16 16 L 18 16 L 18 14 L 16 14 z M 16 16 L 12 16 L 12 18 L 16 18 L 16 16 z M 6 14 L 4 14 L 4 16 L 6 16 L 6 14 z M 6 16 L 6 18 L 10 18 L 10 16 L 6 16 z "
     id="rect1097" />
  <path
     d="m 2.5938,0.5312 c -0.058216,0 -0.0625,0.00428 -0.0625,0.0625 l 0,19.8125 c 0,0.05822 0.00428,0.0625 0.0625,0.0625 l 16.8125,0 c 0.05822,0 0.0625,-0.0043 0.0625,-0.0625 l 0,-19.8125 c 0,-0.058217 -0.0043,-0.0625 -0.0625,-0.0625 L 2.5938,0.5312 Z"
     inkscape:connector-curvature="0"
     id="path3001"
     style="opacity:0.4;fill:none;stroke:#000000" />
  <path
     d="m 3.5312,1.5312 0,17.9375 14.9375,0 0,-17.9375 L 3.5312,1.5312 Z"
     inkscape:connector-curvature="0"
     id="path3003"
     style="opacity:0.8;fill:none;stroke:url(#linearGradient3779)" />
  <g
     transform="matrix(0.45833333,0,0,0.45833333,-76.739902,17.91459)"
     id="g2808-3" />
  <g
     transform="matrix(0.01006087,0,0,0.0145263,-10.631888,30.374756)"
     id="g6865-0" />
  <g
     transform="matrix(0.01006087,0,0,0.0145263,-0.95444186,26.373536)"
     id="g3218-0" />
  <rect
     style="opacity:0.6;fill:#000000;fill-opacity:1;stroke:none"
     id="rect1073"
     width="10"
     height="6"
     x="-16"
     y="7"
     transform="scale(-1,1)" />
  <rect
     transform="scale(-1,1)"
     y="9"
     x="-14"
     height="2"
     width="2"
     id="rect1077"
     style="fill:#ebebeb;fill-opacity:1;stroke:none" />
  <rect
     style="fill:#ebebeb;fill-opacity:1;stroke:none"
     id="rect1079"
     width="2"
     height="2"
     x="-10"
     y="9"
     transform="scale(-1,1)" />
  <rect
     transform="scale(-1,1)"
     y="13"
     x="-6"
     height="2"
     width="2"
     id="rect1081"
     style="opacity:0.6;fill:#000000;fill-opacity:1;stroke:none" />
  <rect
     style="opacity:0.6;fill:#000000;fill-opacity:1;stroke:none"
     id="rect1083"
     width="4"
     height="2"
     x="-10"
     y="15"
     transform="scale(-1,1)" />
  <rect
     style="opacity:0.6;fill:#000000;fill-opacity:1;stroke:none"
     id="rect1085"
     width="2"
     height="2"
     x="16"
     y="13" />
  <rect
     y="15"
     x="12"
     height="2"
     width="4"
     id="rect1087"
     style="opacity:0.6;fill:#000000;fill-opacity:1;stroke:none" />
  <rect
     style="opacity:0.6;fill:#000000;fill-opacity:1;stroke:none"
     id="rect1089"
     width="2"
     height="2"
     x="-10"
     y="5"
     transform="scale(-1,1)" />
  <rect
     transform="scale(-1,1)"
     y="5"
     x="-14"
     height="2"
     width="2"
     id="rect1091"
     style="opacity:0.6;fill:#000000;fill-opacity:1;stroke:none" />
  <rect
     style="opacity:0.6;fill:#000000;fill-opacity:1;stroke:none"
     id="rect1093"
     width="2"
     height="2"
     x="-16"
     y="3"
     transform="scale(-1,1)" />
  <rect
     transform="scale(-1,1)"
     y="3"
     x="-8"
     height="2"
     width="2"
     id="rect1095"
     style="opacity:0.6;fill:#000000;fill-opacity:1;stroke:none" />
</svg>
